X: 21603
T: Killarney Whistle, The
R: jig
M: 6/8
K: Gmajor
|:G3 DED|GAB d2 B|A3 DED|ABc BGE|
G3 DED|GAB dBG|ABc BGE|DFA G2 E:|
|:G3 d2 B|gde dBG|c2 A BAG|Ade fga|
gf/g/a gdB|edc d2 g|cde dBG|1 DFA G2 F:|2 DFA GFG||
|:A2 D c2 D|B2 D A2 D|GF/G/A GBd|gde dBG|
A2 D c2 D|B2 D A2 d|gf/g/a gdB|1 cBA GFG:|2 cBA G2 e||

